static/img/svg/bx-dumbbell.svg

<svg xmlns="http://www.w3.org/2000/svg" width="24" height="24" viewBox="0 0 24 24"><path d="M17 5h-1c-.553 0-1 .447-1 1v5H9V6c0-.553-.447-1-1-1H7C6.447 5 6 5.447 6 6v5 2 5c0 .553.447 1 1 1h1c.553 0 1-.447 1-1v-5h6v5c0 .553.447 1 1 1h1c.553 0 1-.447 1-1V6C18 5.447 17.553 5 17 5zM3 11L2 11 2 13 3 13 3 16 5 16 5 8 3 8zM22 11L21 11 21 8 19 8 19 16 21 16 21 13 22 13z"/></svg>

<svg xmlns="http://www.w3.org/2000/svg" width="24" height="24"><path d="M18 19V5h-3v6H9V5H6v14h3v-6h6v6zM3 16h2V8H3v3H2v2h1zM21 8h-2v8h2v-3h1v-2h-1z"/></svg>
